X: 32723
T: Poll Ha'penny
R: hornpipe
M: 4/4
K: Dmixolydian
ed|c2EF GE~E2|GBAF G2 B/^c/d|egec AdcA|GE~E2 G2GE|
A2AB cBcA|d^cde g2 e/f/g|afge fdec|A2AG A2:|
ef|g2ga gedg|eggf gedg|e2ag abag|eaag a2ag|
~f3d ~e3^c|d2 B/^c/d efge|aged cAGE|A2AG A2:|

